public/avatar/item1/49.svg

<svg xmlns:xlink="http://www.w3.org/1999/xlink" height="65.4" width="80.15" xmlns="http://www.w3.org/2000/svg"><g transform="translate(31.6 13.8)"><use height="29.45" transform="translate(-28.1 20.95)" width="19.2" xlink:href="#a"/><use height="26.05" transform="translate(-27.45 23.5)" width="17.6" xlink:href="#b"/><use height="10.9" transform="translate(-25.85 29.9)" width="9.7" xlink:href="#c"/><use height="24.35" transform="translate(-26.15 21.75)" width="15.3" xlink:href="#d"/><use height="15.35" transform="translate(-26.25 32.15)" width="14.9" xlink:href="#e"/><use height="20.4" transform="translate(-25.65 23.1)" width="14.35" xlink:href="#f"/><use height="13" transform="translate(-17.1 24.05)" width="5.35" xlink:href="#g"/></g><defs><use height="29.45" width="19.2" xlink:href="#h" id="a"/><use height="26.05" width="17.6" xlink:href="#i" id="b"/><use height="24.35" width="15.3" xlink:href="#j" id="d"/><use height="15.35" width="14.9" xlink:href="#k" id="e"/><use height="20.4" width="14.35" xlink:href="#l" id="f"/><use height="13" width="5.35" xlink:href="#m" id="g"/><g id="h" fill-rule="evenodd"><path d="m-2.35-10.65-.15.05.1.3q.1.35-.1.95L-2.95-8l-.2 1.65q.1 1.6.55 2.4l1.45 2.05 1.1 1.1Q.6-.3 1.4 0l2.95.15Q5.4-.5 5.95-1.9l.4-1.65-.15-1.5-.35-1.55-.6-1.4q-1-2.75-2.6-3.7-1.2-.7-2.5-.45l-1.3.6-.7.4-.5.5v-.05.05m5.9-4.05q.8 0 1.9 2l.5.85Q7-10.55 7.5-6.5l.35 5q1.6 4.6 1.75 7.75L9.35 9.4q-.4 1.55-1.1 2.5-.9 1.35-2.35 2-1.55.75-3 .85-1.45.05-4-2.25-8.35-5.05-8.5-9.75 0-2.05.8-3.45L-7-4.1l.85-.75q.65-.35.65-.6l-.05-.1h.1l.1-.45.1-1.6.7-2.3q.8-1.85 1.45-2.4.65-.55 1.5-.55l.5-.05q.65-.15 4.65-1.8" fill="#000200" transform="translate(9.6 14.7)"/><path d="M2.95-3.25 2.4-1.2q-.1.05-7.1-4.15l3.65-1.6q.2-.05.3.2l.4 2.3.2.05.3.8q.45.8 1.15 1.05l1.4-.3.25-.4" fill="#010500" transform="translate(9.6 14.7)"/></g><g id="i" fill-rule="evenodd"><path d="M-8.75.9q.45-3.05 4.2-7.1 6.8 3.55 7.1 4.1L.65 3.15Q-1.3 8.4-.75 9.8l.8 1.45Q-5.2 9.1-8.45 3.2q-.5-.75-.3-2.3" fill="#0a4703" transform="translate(8.8 13)"/><path d="m8.55 2 .2 3.35q.3 2.4-.9 4.75-1.4 2.65-4.6 2.9-3.35.3-3.95-2.75Q-.95 9.1-.5 9l1.45.4q2.9.75 4.95-1.4 1.2-1.25 1.6-4.75.5-3.25.2-4.4.7.95.85 3.15" fill="#0a4703" transform="translate(8.8 13)"/><path d="M-4.35-6.05q-.8-1.85 1.1-5.45.8-1.55 2.2-1.5l1.25.3q-1.45 1.25-1.6 3.3-.05.6.45 1.85l-3.4 1.5" fill="#093a02" transform="translate(8.8 13)"/></g><g id="c" fill-rule="evenodd"><path d="M-18.9 31.45q2.95 2 2.75 2.85-6.25 7.7-8.45 6.3-1.25-.8-1.25-3.5.05-3.6 3.35-7 .65-.7 3.6 1.35" fill="#020002" transform="translate(25.85 -29.9)"/><path d="M-17 33.8q-4.65 5.9-6.6 4.75-1.15-.75-1.25-2.6-.2-2.6 2.6-5.5 5.15 3 5.25 3.35" fill="#146608" transform="translate(25.85 -29.9)"/><path d="M-22.05 38.1q-1.35 2.2-2.9 1.3-1.5-.95-.1-3.15t2.9-1.3q1.45.95.1 3.15" fill="#000200" transform="translate(25.85 -29.9)"/><path d="M-22.5 38.15q-1 1.5-2.05.9-1-.75-.05-2.25 1.05-1.6 2.05-.9 1.05.6.05 2.25" fill="#e0a30b" transform="translate(25.85 -29.9)"/><path d="M-22.9 37.4q-.75.75-1.25.15-.55-.55.2-1.25.8-.7 1.3-.15.55.55-.25 1.25" fill="#e8b749" transform="translate(25.85 -29.9)"/><path d="m-23 37.1-.95.1q-.35-.35.2-.9l.9-.1q.35.45-.15.9" fill="#f9dd64" transform="translate(25.85 -29.9)"/><path d="m-20.5 31.5-.05-.05.75.9q-1.5-1.2-2.75-.3l-1.3.85q.15-.6 1.3-1.85.5-.5 2.05.45" fill="#0b8204" transform="translate(25.85 -29.9)"/><path d="m-22.9 31.75-.2.2.6-.75.7-.2q.9 0 .65.4l-.35.05h-.45l-.95.3" fill="#1dbc11" transform="translate(25.85 -29.9)"/></g><g id="j" fill="#0c6005" fill-rule="evenodd"><path d="m-2.5 12-1.45-.4-.1.05-.2-.15-.15-.25q.15-1.75 1.1-4.8Q-1.6 1.35-.9.5l4.4-.75q.4.2.85 2.45l-.3 3.65q-.4 3.5-1.6 4.75Q.4 12.75-2.5 12" transform="translate(10.95 12.15)"/><path d="m-3.95-10.35 3.75-1.8Q3.75-9.5 3.55-.2L-.9.5Q.75-4-1.25-7.45q-1.05-1.85-2.7-2.9m-6.7 10 .25-.5.75-1 .35-.45.2-.2.15-.25v-.1l.2.25.2.1-.3.4-1.2 2-.15.6v.3l-.1.2-.5-.35-.15-.25V.1l.3-.45" transform="translate(10.95 12.15)"/></g><path d="m6.65-7.45.5-.1.2-.1.1.8-.1.95-.15-.2-.2-.15-.5-.25-1.15.1-2.3.7-.35.2.2-.5.1-.6h-.05l.55-.3.45-.2 1.75-.35h.95M-7.4 1.3q.35.1 2.1 1.3 1.15.75 2.55.25 1-.3 2.4-2.25 1.35-1.85 1.6-3 0 1.2-1.2 5Q-.9 5.65-.3 7.7l-3.55-2.4q-3.05-2.35-3.6-4h.05" transform="translate(7.45 7.65)" id="k" fill="#0c2d01" fill-rule="evenodd"/><path d="m7.15 2.7-.2 2.25q0 2.05-1.2 3.7-1.35 1.8-3.15 1.6-2.55-.2-1.8-4.4.75-4 2.4-4.7Q7.05-.25 7.15 2.7M6.2-6.8q-.25.3-1.9.9l-1.7.65-.2-.95-.45-.9Q1.2-8.25.7-8.45l.15-.15H.8l1.8-.95 1.1-.55.8-.05 1 1.65.6 1.25.1.45M-7.2-.05l.55-.8.45-.25q.4.15.3.35l-.2.2-.35.65-.3.2-.4-.3-.05-.05" transform="translate(7.2 10.15)" id="l" fill="#0b8204" fill-rule="evenodd"/><path d="m.9-6.5.3.25.4.75-2.2 1.15q-.35.2-.75.35l-.4.15-.7-1.05-.25-.25L.9-6.5m-.8 13h-2.35l.35-.85q.3-1.5 2.85-1.8Q3.4 3.55 2.3 5.5q-.6 1.1-2.2 1" transform="translate(2.7 6.5)" id="m" fill="#1dbc11" fill-rule="evenodd"/></defs></svg>

<?xml version="1.0" encoding="UTF-8" standalone="no"?>
<svg xmlns:xlink="http://www.w3.org/1999/xlink" height="65.4px" width="80.15px" xmlns="http://www.w3.org/2000/svg">
  <g transform="matrix(1.0, 0.0, 0.0, 1.0, 31.6, 13.8)">
    <use height="29.45" transform="matrix(1.0, 0.0, 0.0, 1.0, -28.1, 20.95)" width="19.2" xlink:href="#sprite0"/>
    <use height="26.05" transform="matrix(1.0, 0.0, 0.0, 1.0, -27.45, 23.5)" width="17.6" xlink:href="#sprite1"/>
    <use height="10.9" transform="matrix(1.0, 0.0, 0.0, 1.0, -25.85, 29.9)" width="9.7" xlink:href="#shape2"/>
    <use height="24.35" transform="matrix(1.0, 0.0, 0.0, 1.0, -26.15, 21.75)" width="15.3" xlink:href="#sprite2"/>
    <use height="15.35" transform="matrix(1.0, 0.0, 0.0, 1.0, -26.25, 32.15)" width="14.9" xlink:href="#sprite3"/>
    <use height="20.4" transform="matrix(1.0, 0.0, 0.0, 1.0, -25.65, 23.1)" width="14.35" xlink:href="#sprite4"/>
    <use height="13.0" transform="matrix(1.0, 0.0, 0.0, 1.0, -17.1, 24.05)" width="5.35" xlink:href="#sprite5"/>
  </g>
  <defs>
    <g id="sprite0" transform="matrix(1.0, 0.0, 0.0, 1.0, 9.6, 14.7)">
      <use height="29.45" transform="matrix(1.0, 0.0, 0.0, 1.0, -9.6, -14.7)" width="19.2" xlink:href="#shape0"/>
    </g>
    <g id="shape0" transform="matrix(1.0, 0.0, 0.0, 1.0, 9.6, 14.7)">
      <path d="M-2.35 -10.65 L-2.5 -10.6 -2.4 -10.3 Q-2.3 -9.95 -2.5 -9.35 L-2.95 -8.0 -3.15 -6.35 Q-3.05 -4.75 -2.6 -3.95 L-1.15 -1.9 -0.05 -0.8 Q0.6 -0.3 1.4 0.0 L4.35 0.15 Q5.4 -0.5 5.95 -1.9 L6.35 -3.55 6.2 -5.05 5.85 -6.6 5.25 -8.0 Q4.25 -10.75 2.65 -11.7 1.45 -12.4 0.15 -12.15 L-1.15 -11.55 -1.85 -11.15 -2.35 -10.65 -2.35 -10.7 -2.35 -10.65 M3.55 -14.7 Q4.35 -14.7 5.45 -12.7 L5.95 -11.85 Q7.0 -10.55 7.5 -6.5 L7.85 -1.5 Q9.45 3.1 9.6 6.25 L9.35 9.4 Q8.95 10.95 8.25 11.9 7.35 13.25 5.9 13.9 4.35 14.65 2.9 14.75 1.45 14.8 -1.1 12.5 -9.45 7.45 -9.6 2.75 -9.6 0.7 -8.8 -0.7 L-7.0 -4.1 -6.15 -4.85 Q-5.5 -5.2 -5.5 -5.45 L-5.55 -5.55 -5.45 -5.55 -5.35 -6.0 -5.25 -7.6 -4.55 -9.9 Q-3.75 -11.75 -3.1 -12.3 -2.45 -12.85 -1.6 -12.85 L-1.1 -12.9 Q-0.45 -13.05 3.55 -14.7" fill="#000200" fill-rule="evenodd" stroke="none"/>
      <path d="M2.95 -3.25 L2.4 -1.2 Q2.3 -1.15 -4.7 -5.35 L-1.05 -6.95 Q-0.85 -7.0 -0.75 -6.75 L-0.35 -4.45 -0.15 -4.4 0.15 -3.6 Q0.6 -2.8 1.3 -2.55 L2.7 -2.85 2.95 -3.25" fill="#010500" fill-rule="evenodd" stroke="none"/>
    </g>
    <g id="sprite1" transform="matrix(1.0, 0.0, 0.0, 1.0, 8.8, 13.0)">
      <use height="26.05" transform="matrix(1.0, 0.0, 0.0, 1.0, -8.8, -13.0)" width="17.6" xlink:href="#shape1"/>
    </g>
    <g id="shape1" transform="matrix(1.0, 0.0, 0.0, 1.0, 8.8, 13.0)">
      <path d="M-8.75 0.9 Q-8.3 -2.15 -4.55 -6.2 2.25 -2.65 2.55 -2.1 L0.65 3.15 Q-1.3 8.4 -0.75 9.8 L0.05 11.25 Q-5.2 9.1 -8.45 3.2 -8.95 2.45 -8.75 0.9" fill="#0a4703" fill-rule="evenodd" stroke="none"/>
      <path d="M8.55 2.0 L8.75 5.35 Q9.05 7.75 7.85 10.1 6.45 12.75 3.25 13.0 -0.1 13.3 -0.7 10.25 -0.95 9.1 -0.5 9.0 L0.95 9.4 Q3.85 10.15 5.9 8.0 7.1 6.75 7.5 3.25 8.0 0.0 7.7 -1.15 8.4 -0.2 8.55 2.0" fill="#0a4703" fill-rule="evenodd" stroke="none"/>
      <path d="M-4.35 -6.05 Q-5.15 -7.9 -3.25 -11.5 -2.45 -13.05 -1.05 -13.0 L0.2 -12.7 Q-1.25 -11.45 -1.4 -9.4 -1.45 -8.8 -0.95 -7.55 L-4.35 -6.05" fill="#093a02" fill-rule="evenodd" stroke="none"/>
    </g>
    <g id="shape2" transform="matrix(1.0, 0.0, 0.0, 1.0, 25.85, -29.9)">
      <path d="M-18.9 31.45 Q-15.95 33.45 -16.15 34.3 -22.4 42.0 -24.6 40.6 -25.85 39.8 -25.85 37.1 -25.8 33.5 -22.5 30.1 -21.85 29.4 -18.9 31.45" fill="#020002" fill-rule="evenodd" stroke="none"/>
      <path d="M-17.0 33.8 Q-21.65 39.7 -23.6 38.55 -24.75 37.8 -24.85 35.95 -25.05 33.35 -22.25 30.45 -17.1 33.45 -17.0 33.8" fill="#146608" fill-rule="evenodd" stroke="none"/>
      <path d="M-22.05 38.1 Q-23.4 40.3 -24.95 39.4 -26.45 38.45 -25.05 36.25 -23.65 34.05 -22.15 34.95 -20.7 35.9 -22.05 38.1" fill="#000200" fill-rule="evenodd" stroke="none"/>
      <path d="M-22.5 38.15 Q-23.5 39.65 -24.55 39.05 -25.55 38.3 -24.6 36.8 -23.55 35.2 -22.55 35.9 -21.5 36.5 -22.5 38.15" fill="#e0a30b" fill-rule="evenodd" stroke="none"/>
      <path d="M-22.9 37.4 Q-23.65 38.15 -24.15 37.55 -24.7 37.0 -23.95 36.3 -23.15 35.6 -22.65 36.15 -22.1 36.7 -22.9 37.4" fill="#e8b749" fill-rule="evenodd" stroke="none"/>
      <path d="M-23.0 37.1 L-23.95 37.2 Q-24.3 36.85 -23.75 36.3 L-22.85 36.2 Q-22.5 36.65 -23.0 37.1" fill="#f9dd64" fill-rule="evenodd" stroke="none"/>
      <path d="M-20.5 31.5 L-20.55 31.45 -19.8 32.35 Q-21.3 31.15 -22.55 32.05 L-23.85 32.9 Q-23.7 32.3 -22.55 31.05 -22.05 30.55 -20.5 31.5" fill="#0b8204" fill-rule="evenodd" stroke="none"/>
      <path d="M-22.9 31.75 L-23.1 31.95 -22.5 31.2 -21.8 31.0 Q-20.9 31.0 -21.15 31.4 L-21.5 31.45 -21.95 31.45 -22.9 31.75" fill="#1dbc11" fill-rule="evenodd" stroke="none"/>
    </g>
    <g id="sprite2" transform="matrix(1.0, 0.0, 0.0, 1.0, 10.95, 12.15)">
      <use height="24.35" transform="matrix(1.0, 0.0, 0.0, 1.0, -10.95, -12.15)" width="15.3" xlink:href="#shape3"/>
    </g>
    <g id="shape3" transform="matrix(1.0, 0.0, 0.0, 1.0, 10.95, 12.15)">
      <path d="M-2.5 12.0 L-3.95 11.6 -4.05 11.65 -4.25 11.5 -4.4 11.25 Q-4.25 9.5 -3.3 6.45 -1.6 1.35 -0.9 0.5 L3.5 -0.25 Q3.9 -0.05 4.35 2.2 L4.05 5.85 Q3.65 9.35 2.45 10.6 0.4 12.75 -2.5 12.0" fill="#0c6005" fill-rule="evenodd" stroke="none"/>
      <path d="M-3.95 -10.35 L-0.2 -12.15 Q3.75 -9.5 3.55 -0.2 L-0.9 0.5 Q0.75 -4.0 -1.25 -7.45 -2.3 -9.3 -3.95 -10.35" fill="#0c6005" fill-rule="evenodd" stroke="none"/>
      <path d="M-10.65 -0.35 L-10.4 -0.85 -9.65 -1.85 -9.3 -2.3 -9.1 -2.5 -8.95 -2.75 -8.95 -2.85 -8.75 -2.6 -8.55 -2.5 -8.85 -2.1 -10.05 -0.1 -10.2 0.5 -10.2 0.8 -10.3 1.0 -10.8 0.65 -10.95 0.4 -10.95 0.1 -10.65 -0.35" fill="#0c6005" fill-rule="evenodd" stroke="none"/>
    </g>
    <g id="sprite3" transform="matrix(1.0, 0.0, 0.0, 1.0, 7.45, 7.65)">
      <use height="15.35" transform="matrix(1.0, 0.0, 0.0, 1.0, -7.45, -7.65)" width="14.9" xlink:href="#shape4"/>
    </g>
    <g id="shape4" transform="matrix(1.0, 0.0, 0.0, 1.0, 7.45, 7.65)">
      <path d="M6.65 -7.45 L7.15 -7.55 7.35 -7.65 7.45 -6.85 7.35 -5.9 7.2 -6.1 7.0 -6.25 6.5 -6.5 5.35 -6.4 3.05 -5.7 2.7 -5.5 2.9 -6.0 3.0 -6.6 2.95 -6.6 3.5 -6.9 3.95 -7.1 5.7 -7.45 6.65 -7.45" fill="#0c2d01" fill-rule="evenodd" stroke="none"/>
      <path d="M-7.4 1.3 Q-7.05 1.4 -5.3 2.6 -4.15 3.35 -2.75 2.85 -1.75 2.55 -0.35 0.6 1.0 -1.25 1.25 -2.4 1.25 -1.2 0.05 2.6 -0.9 5.65 -0.3 7.7 L-3.85 5.3 Q-6.9 2.95 -7.45 1.3 L-7.4 1.3" fill="#0c2d01" fill-rule="evenodd" stroke="none"/>
    </g>
    <g id="sprite4" transform="matrix(1.0, 0.0, 0.0, 1.0, 7.2, 10.15)">
      <use height="20.4" transform="matrix(1.0, 0.0, 0.0, 1.0, -7.2, -10.15)" width="14.35" xlink:href="#shape5"/>
    </g>
    <g id="shape5" transform="matrix(1.0, 0.0, 0.0, 1.0, 7.2, 10.15)">
      <path d="M7.15 2.7 L6.95 4.95 Q6.95 7.0 5.75 8.65 4.4 10.45 2.6 10.25 0.05 10.05 0.8 5.85 1.55 1.85 3.2 1.15 7.05 -0.25 7.15 2.7" fill="#0b8204" fill-rule="evenodd" stroke="none"/>
      <path d="M6.2 -6.8 Q5.95 -6.5 4.3 -5.9 L2.6 -5.25 2.4 -6.2 1.95 -7.1 Q1.2 -8.25 0.7 -8.45 L0.85 -8.6 0.8 -8.6 2.6 -9.55 3.7 -10.1 4.5 -10.15 5.5 -8.5 6.1 -7.25 6.2 -6.8" fill="#0b8204" fill-rule="evenodd" stroke="none"/>
      <path d="M-7.2 -0.05 L-6.65 -0.85 -6.2 -1.1 Q-5.8 -0.95 -5.9 -0.75 L-6.1 -0.55 -6.45 0.1 -6.75 0.3 -7.15 0.0 -7.2 -0.05" fill="#0b8204" fill-rule="evenodd" stroke="none"/>
    </g>
    <g id="sprite5" transform="matrix(1.0, 0.0, 0.0, 1.0, 2.7, 6.5)">
      <use height="13.0" transform="matrix(1.0, 0.0, 0.0, 1.0, -2.7, -6.5)" width="5.35" xlink:href="#shape6"/>
    </g>
    <g id="shape6" transform="matrix(1.0, 0.0, 0.0, 1.0, 2.7, 6.5)">
      <path d="M0.9 -6.5 L1.2 -6.25 1.6 -5.5 -0.6 -4.35 Q-0.95 -4.15 -1.35 -4.0 L-1.75 -3.85 -2.45 -4.9 -2.7 -5.15 0.9 -6.5" fill="#1dbc11" fill-rule="evenodd" stroke="none"/>
      <path d="M0.1 6.5 L-2.25 6.5 -1.9 5.65 Q-1.6 4.15 0.95 3.85 3.4 3.55 2.3 5.5 1.7 6.6 0.1 6.5" fill="#1dbc11" fill-rule="evenodd" stroke="none"/>
    </g>
  </defs>
</svg>
